X: 7706
T: College Groves, The
R: reel
M: 4/4
K: Dmajor
DDED ADED|DE=cE dEcE|PD2 FA dfed|=cAGA EAGE|
DDED ADED|E=CE=c dEcE|PD2 FA dfed|=cAGE EADe|
fdd2 dfaf|e2ed (3e=f^f ge|fd d2 dcAB|=cAGE ED[Dd]e|
fdd2 dfaf|e2ed (3e=f^f ge|d2de fa gb|(3aaa ge fddd|
(3efg ag fddd|(3e=f^f gf e=c (3cBc|fgag fd (3ddd|=cAGE ED[Dd]e|
(3=f^fg ag (3ffe df|e2ed (3e=f^f ge|d2de fa gb|(3aaa ge fdd2|
fedf fedf|fece Aece|fdd2 fded|=cAGE ED[Dd]e|
fd (3ddd dfdf|(3ffe ce gece|(3dcd (3efg fa gb|afge fdd2||

